;FLAVOR:Marlin
;TIME:18781
;Filament used: 18.0818m
;Layer height: 0.28
;MINX:59
;MINY:32
;MINZ:0.28
;MAXX:161
;MAXY:188
;MAXZ:23.8
;Generated with Cura_SteamEngine 4.7.1
M140 S60
M105
M190 S60
M104 S200
M105
M109 S200
M82 ;absolute extrusion mode
; Ender 3 Custom Start G-code
G92 E0 ; Reset Extruder
G28 ; Home all axes
G1 Z2.0 F3000 ; Move Z Axis up little to prevent scratching of Heat Bed
G1 X0.1 Y20 Z0.3 F5000.0 ; Move to start position
G1 X0.1 Y200.0 Z0.3 F1500.0 E15 ; Draw the first line
G1 X0.4 Y200.0 Z0.3 F5000.0 ; Move to side a little
G1 X0.4 Y20 Z0.3 F1500.0 E30 ; Draw the second line
G92 E0 ; Reset Extruder
G1 Z2.0 F3000 ; Move Z Axis up little to prevent scratching of Heat Bed
G1 X5 Y20 Z0.3 F5000.0 ; Move over to prevent blob squish
G92 E0
G92 E0
G1 F1500 E-6.5
;LAYER_COUNT:85
;LAYER:0
M107
G0 F6000 X61.002 Y41.692 Z0.28
;TYPE:SKIRT
G1 F1500 E0
G1 F1200 X61.572 Y40.948 E0.04364
G1 X61.945 Y40.524 E0.06994
G1 X62.086 Y40.372 E0.07959
G1 X62.288 Y40.16 E0.09323
G1 X62.553 Y39.891 E0.11081
G1 X66.739 Y35.704 E0.3865
G1 X66.871 Y35.574 E0.39513
G1 X67.358 Y35.103 E0.42667
G1 X68.059 Y34.48 E0.47034
G1 X68.811 Y33.92 E0.514
G1 X69.608 Y33.425 E0.55769
G1 X70.444 Y33 E0.60136
G1 X71.313 Y32.648 E0.64501
G1 X72.209 Y32.371 E0.68868
G1 X73.126 Y32.172 E0.73238
G1 X74.056 Y32.051 E0.77605
G1 X74.634 Y32.016 E0.80301
G1 X74.782 Y32.011 E0.80991
G1 X75.019 Y32.006 E0.82094
G1 X75.562 Y32 E0.84623
G1 X144.293 Y32 E4.04663
G1 X144.45 Y32.001 E4.05394
G1 X145.151 Y32.011 E4.08659
G1 X146.087 Y32.064 E4.13024
G1 X147.016 Y32.197 E4.17394
G1 X147.929 Y32.409 E4.21759
G1 X148.822 Y32.697 E4.26128
G1 X149.686 Y33.061 E4.30493
G1 X150.517 Y33.497 E4.34863
G1 X151.307 Y34.002 E4.39229
G1 X152.051 Y34.572 E4.43593
G1 X152.448 Y34.921 E4.46055
G1 X152.601 Y35.062 E4.47023
G1 X152.829 Y35.277 E4.48483
G1 X152.993 Y35.437 E4.4955
G1 X157.41 Y39.855 E4.7864
G1 X157.882 Y40.341 E4.81794
G1 X158.506 Y41.041 E4.86161
G1 X159.068 Y41.792 E4.90528
G1 X159.565 Y42.588 E4.94898
G1 X159.991 Y43.423 E4.99263
G1 X160.345 Y44.292 E5.03632
G1 X160.624 Y45.187 E5.07998
G1 X160.825 Y46.103 E5.12364
G1 X160.948 Y47.033 E5.16732
G1 X160.987 Y47.71 E5.1989
G1 X160.994 Y48.02 E5.21334
G1 X161 Y48.563 E5.23863
G1 X161 Y171.293 E10.95345
G1 X160.999 Y171.45 E10.96076
G1 X160.989 Y172.152 E10.99345
G1 X160.936 Y173.088 E11.0371
G1 X160.803 Y174.016 E11.08076
G1 X160.591 Y174.93 E11.12445
G1 X160.303 Y175.823 E11.16814
G1 X159.939 Y176.687 E11.21179
G1 X159.503 Y177.518 E11.25549
G1 X158.998 Y178.308 E11.29915
G1 X158.428 Y179.052 E11.34279
G1 X158.055 Y179.476 E11.36909
G1 X157.914 Y179.628 E11.37874
G1 X157.712 Y179.84 E11.39238
G1 X157.531 Y180.025 E11.40443
G1 X153.267 Y184.289 E11.68522
G1 X152.652 Y184.887 E11.72516
G1 X151.952 Y185.511 E11.76883
G1 X151.201 Y186.072 E11.81248
G1 X150.404 Y186.568 E11.85619
G1 X149.569 Y186.994 E11.89984
G1 X148.7 Y187.347 E11.94351
G1 X147.804 Y187.625 E11.9872
G1 X146.888 Y187.826 E12.03087
G1 X145.958 Y187.948 E12.07454
G1 X145.366 Y187.984 E12.10216
G1 X145.218 Y187.989 E12.10905
G1 X144.981 Y187.994 E12.12009
G1 X144.438 Y188 E12.14538
G1 X75.707 Y188 E15.34578
G1 X75.55 Y187.999 E15.35309
G1 X74.848 Y187.989 E15.38578
G1 X73.912 Y187.936 E15.42944
G1 X72.984 Y187.803 E15.47309
G1 X72.07 Y187.591 E15.51678
G1 X71.177 Y187.303 E15.56047
G1 X70.313 Y186.939 E15.60413
G1 X69.482 Y186.503 E15.64782
G1 X68.692 Y185.998 E15.69148
G1 X67.948 Y185.428 E15.73513
G1 X67.524 Y185.055 E15.76142
G1 X67.372 Y184.914 E15.77108
G1 X67.156 Y184.707 E15.78501
G1 X66.881 Y184.437 E15.80295
G1 X62.597 Y180.153 E16.08506
G1 X62.127 Y179.67 E16.11644
G1 X61.503 Y178.971 E16.16007
G1 X60.94 Y178.221 E16.20374
G1 X60.443 Y177.425 E16.24744
G1 X60.015 Y176.591 E16.29109
G1 X59.66 Y175.723 E16.33475
G1 X59.381 Y174.827 E16.37845
G1 X59.179 Y173.911 E16.42213
G1 X59.055 Y172.982 E16.46577
G1 X59.02 Y172.433 E16.49139
G1 X59.014 Y172.281 E16.49847
G1 X59.006 Y171.981 E16.51244
G1 X59 Y171.438 E16.53773
G1 X59 Y48.707 E22.2526
G1 X59.001 Y48.55 E22.25991
G1 X59.011 Y47.848 E22.2926
G1 X59.064 Y46.912 E22.33626
G1 X59.197 Y45.984 E22.37991
G1 X59.409 Y45.07 E22.4236
G1 X59.697 Y44.177 E22.46729
G1 X60.061 Y43.313 E22.51095
G1 X60.497 Y42.482 E22.55464
G1 X61.002 Y41.692 E22.5983
G0 F6000 X61.398 Y41.825
G1 F1200 X62.239 Y40.796 E22.66018
G1 X62.38 Y40.644 E22.66984
G1 X62.574 Y40.44 E22.68295
G1 X62.836 Y40.174 E22.70033
G1 X67.022 Y35.987 E22.97602
G1 X67.149 Y35.862 E22.98432
G1 X67.636 Y35.391 E23.01586
G1 X68.325 Y34.78 E23.05875
G1 X69.064 Y34.231 E23.10161
G1 X69.848 Y33.749 E23.14447
G1 X70.671 Y33.336 E23.18734
G1 X71.527 Y32.997 E23.23021
G1 X72.409 Y32.733 E23.27308
G1 X73.311 Y32.546 E23.31598
G1 X74.647 Y32.416 E23.37848
G1 X74.795 Y32.411 E23.38538
G1 X75.023 Y32.406 E23.396
G1 X75.562 Y32.4 E23.4211
G1 X144.293 Y32.4 E26.6215
G1 X145.145 Y32.411 E26.66118
G1 X146.064 Y32.464 E26.70404
G1 X146.975 Y32.597 E26.74691
G1 X147.871 Y32.808 E26.78977
G1 X148.746 Y33.096 E26.83267
G1 X149.592 Y33.459 E26.87553
G1 X150.403 Y33.894 E26.91838
G1 X151.174 Y34.398 E26.96128
G1 X152.177 Y35.215 E27.02151
G1 X152.33 Y35.356 E27.0312
G1 X152.549 Y35.564 E27.04527
G1 X152.806 Y35.816 E27.06203
G1 X157.123 Y40.134 E27.34634
G1 X157.595 Y40.62 E27.37789
G1 X158.207 Y41.308 E27.42076
G1 X158.757 Y42.046 E27.46362
G1 X159.241 Y42.829 E27.50648
G1 X159.656 Y43.651 E27.54936
G1 X159.997 Y44.506 E27.59222
G1 X160.263 Y45.388 E27.63512
G1 X160.451 Y46.289 E27.67798
G1 X160.561 Y47.203 E27.72084
G1 X160.587 Y47.721 E27.74499
G1 X160.594 Y48.024 E27.75911
G1 X160.6 Y48.563 E27.78421
G1 X160.6 Y171.293 E33.49903
G1 X160.589 Y172.146 E33.53875
G1 X160.536 Y173.065 E33.58162
G1 X160.403 Y173.976 E33.62449
G1 X160.192 Y174.872 E33.66735
G1 X159.904 Y175.747 E33.71024
G1 X159.541 Y176.593 E33.75311
G1 X159.106 Y177.404 E33.79596
G1 X158.602 Y178.175 E33.83885
G1 X157.761 Y179.204 E33.90073
G1 X157.62 Y179.356 E33.91039
G1 X157.426 Y179.56 E33.9235
G1 X157.245 Y179.745 E33.93555
G1 X152.868 Y184.121 E34.22375
G1 X152.374 Y184.6 E34.25579
G1 X151.686 Y185.212 E34.29867
G1 X150.947 Y185.761 E34.34153
G1 X150.164 Y186.245 E34.3844
G1 X149.341 Y186.658 E34.42727
G1 X148.486 Y186.999 E34.47014
G1 X147.604 Y187.264 E34.51302
G1 X146.703 Y187.452 E34.55588
G1 X145.353 Y187.584 E34.61904
G1 X145.205 Y187.589 E34.62593
G1 X144.977 Y187.594 E34.63655
G1 X144.438 Y187.6 E34.66165
G1 X75.707 Y187.6 E37.86206
G1 X74.854 Y187.589 E37.90178
G1 X73.935 Y187.536 E37.94464
G1 X73.024 Y187.403 E37.98751
G1 X72.128 Y187.192 E38.03037
G1 X71.253 Y186.904 E38.07327
G1 X70.407 Y186.541 E38.11614
G1 X69.596 Y186.106 E38.15899
G1 X68.825 Y185.602 E38.20188
G1 X67.796 Y184.761 E38.26376
G1 X67.644 Y184.62 E38.27341
G1 X67.436 Y184.422 E38.28679
G1 X67.164 Y184.154 E38.30457
G1 X62.884 Y179.874 E38.58641
G1 X62.414 Y179.391 E38.61779
G1 X61.801 Y178.704 E38.66067
G1 X61.25 Y177.967 E38.70352
G1 X60.766 Y177.184 E38.74638
G1 X60.351 Y176.362 E38.78926
G1 X60.008 Y175.507 E38.83215
G1 X59.742 Y174.626 E38.875
G1 X59.553 Y173.725 E38.91787
G1 X59.419 Y172.417 E38.9791
G1 X59.413 Y172.265 E38.98618
G1 X59.406 Y171.977 E38.99959
G1 X59.4 Y171.438 E39.02469
G1 X59.4 Y48.707 E44.73956
G1 X59.411 Y47.854 E44.77929
G1 X59.464 Y46.935 E44.82215
G1 X59.597 Y46.024 E44.86502
G1 X59.808 Y45.128 E44.90788
G1 X60.096 Y44.253 E44.95078
G1 X60.459 Y43.407 E44.99364
G1 X60.894 Y42.596 E45.03649
G1 X61.398 Y41.825 E45.07939
G0 F6000 X61.794 Y41.961
G1 F1200 X62.532 Y41.068 E45.13333
G1 X62.673 Y40.916 E45.14298
G1 X62.86 Y40.72 E45.1556
G1 X63.119 Y40.456 E45.17282
G1 X67.305 Y36.269 E45.44851
G1 X67.427 Y36.149 E45.45648
G1 X67.914 Y35.678 E45.48802
G1 X68.59 Y35.08 E45.53005
G1 X69.317 Y34.543 E45.57213
G1 X70.088 Y34.073 E45.61418
G1 X70.898 Y33.673 E45.65625
G1 X71.74 Y33.347 E45.69829
G1 X72.607 Y33.096 E45.74032
G1 X73.494 Y32.923 E45.7824
G1 X74.661 Y32.816 E45.83697
G1 X75.028 Y32.806 E45.85406
G1 X75.562 Y32.8 E45.87893
G1 X144.293 Y32.8 E49.07933
G1 X145.139 Y32.811 E49.11873
G1 X146.041 Y32.864 E49.1608
G1 X146.934 Y32.996 E49.20284
G1 X147.813 Y33.207 E49.24493
G1 X148.669 Y33.495 E49.28698
G1 X149.496 Y33.857 E49.32902
G1 X150.288 Y34.291 E49.37107
G1 X151.038 Y34.794 E49.41312
G1 X151.906 Y35.509 E49.46549
G1 X152.059 Y35.65 E49.47518
G1 X152.27 Y35.85 E49.48871
G1 X152.434 Y36.01 E49.49938
G1 X156.836 Y40.413 E49.78929
G1 X157.308 Y40.899 E49.82084
G1 X157.908 Y41.574 E49.86289
G1 X158.446 Y42.299 E49.90493
G1 X158.917 Y43.069 E49.94696
G1 X159.319 Y43.878 E49.98903
G1 X159.647 Y44.72 E50.0311
G1 X159.9 Y45.587 E50.07316
G1 X160.075 Y46.473 E50.11521
G1 X160.187 Y47.731 E50.17402
G1 X160.194 Y48.029 E50.1879
G1 X160.2 Y48.563 E50.21277
G1 X160.2 Y171.293 E55.92759
G1 X160.189 Y172.14 E55.96703
G1 X160.136 Y173.042 E56.00911
G1 X160.004 Y173.935 E56.05114
G1 X159.793 Y174.813 E56.09319
G1 X159.505 Y175.669 E56.13524
G1 X159.143 Y176.497 E56.17732
G1 X158.709 Y177.289 E56.21937
G1 X158.206 Y178.039 E56.26142
G1 X157.468 Y178.932 E56.31537
G1 X157.327 Y179.084 E56.32502
G1 X157.14 Y179.28 E56.33764
G1 X156.959 Y179.465 E56.34969
G1 X152.589 Y183.834 E56.63743
G1 X152.095 Y184.313 E56.66947
G1 X151.42 Y184.912 E56.71149
G1 X150.694 Y185.449 E56.75354
G1 X149.923 Y185.92 E56.79561
G1 X149.114 Y186.321 E56.83765
G1 X148.273 Y186.649 E56.87969
G1 X147.405 Y186.901 E56.92177
G1 X146.519 Y187.075 E56.96382
G1 X145.339 Y187.184 E57.019
G1 X144.972 Y187.194 E57.03609
G1 X144.438 Y187.2 E57.06096
G1 X75.707 Y187.2 E60.26136
G1 X74.86 Y187.189 E60.3008
G1 X73.958 Y187.136 E60.34288
G1 X73.065 Y187.004 E60.38491
G1 X72.187 Y186.793 E60.42696
G1 X71.331 Y186.505 E60.46901
G1 X70.503 Y186.143 E60.51109
G1 X69.711 Y185.709 E60.55315
G1 X68.961 Y185.206 E60.5952
G1 X68.068 Y184.468 E60.64914
G1 X67.916 Y184.327 E60.65879
G1 X67.716 Y184.136 E60.67167
G1 X67.446 Y183.871 E60.68929
G1 X63.269 Y179.695 E60.96432
G1 X62.701 Y179.112 E61.00222
G1 X62.1 Y178.438 E61.04427
G1 X61.562 Y177.713 E61.08631
G1 X61.089 Y176.943 E61.12838
G1 X60.687 Y176.135 E61.17041
G1 X60.358 Y175.294 E61.21246
G1 X60.104 Y174.427 E61.25453
G1 X59.928 Y173.541 E61.29659
G1 X59.819 Y172.401 E61.34991
G1 X59.813 Y172.249 E61.357
G1 X59.806 Y171.972 E61.3699
G1 X59.8 Y171.438 E61.39477
G1 X59.8 Y48.707 E67.10964
G1 X59.811 Y47.86 E67.14908
G1 X59.864 Y46.958 E67.19115
G1 X59.996 Y46.065 E67.23319
G1 X60.207 Y45.187 E67.27523
G1 X60.495 Y44.331 E67.31729
G1 X60.857 Y43.503 E67.35937
G1 X61.291 Y42.711 E67.40142
G1 X61.794 Y41.961 E67.44347
G1 F1500 E60.94347
;MESH:Caixa Kinectv2.STL
G0 F6000 X107.56 Y54.234
G0 X106.256 Y54.888
G0 X107.85 Y56.182
G0 X108.171 Y56.361
G0 X109.661 Y56.988
;TYPE:WALL-INNER
G1 F1500 E67.44347
G1 F1200 X110.339 Y56.988 E67.47504
G1 X111.009 Y56.872 E67.5067
G1 X111.648 Y56.647 E67.53825
G1 X112.241 Y56.316 E67.56987
G1 X112.77 Y55.89 E67.6015
G1 X113.218 Y55.379 E67.63314
G1 X113.573 Y54.802 E67.66469
G1 X113.827 Y54.172 E67.69632
G1 X113.969 Y53.508 E67.72793
G1 X113.999 Y52.831 E67.75949
G1 X113.912 Y52.157 E67.79113
G1 X113.714 Y51.507 E67.82277
G1 X113.408 Y50.902 E67.85434
G1 X113.004 Y50.356 E67.88597
G1 X112.514 Y49.887 E67.91755
G1 X111.952 Y49.507 E67.94914
G1 X111.334 Y49.227 E67.98074
G1 X110.677 Y49.055 E68.01236
G1 X110 Y48.998 E68.04399
G1 X109.323 Y49.055 E68.07563
G1 X108.666 Y49.227 E68.10725
G1 X108.048 Y49.507 E68.13885
G1 X107.486 Y49.887 E68.17044
G1 X106.996 Y50.356 E68.20202
G1 X106.592 Y50.902 E68.23365
G1 X106.286 Y51.507 E68.26522
G1 X106.088 Y52.157 E68.29686
G1 X106.001 Y52.831 E68.3285
G1 X106.031 Y53.508 E68.36006
G1 X106.173 Y54.172 E68.39167
G1 X106.427 Y54.802 E68.4233
G1 X106.782 Y55.379 E68.45485
G1 X107.23 Y55.89 E68.48649
G1 X107.759 Y56.316 E68.51812
G1 X108.352 Y56.647 E68.54974
G1 X108.991 Y56.872 E68.58129
G1 X109.661 Y56.988 E68.61295
G0 F6000 X109.695 Y56.588
;TYPE:WALL-OUTER
G1 F1200 X110.305 Y56.588 E68.64135
G1 X110.908 Y56.484 E68.66985
G1 X111.483 Y56.281 E68.69824
G1 X112.016 Y55.983 E68.72667
G1 X112.492 Y55.6 E68.75512
G1 X112.895 Y55.141 E68.78356
G1 X113.215 Y54.621 E68.812
G1 X113.443 Y54.055 E68.84041
G1 X113.571 Y53.457 E68.86889
G1 X113.598 Y52.848 E68.89727
G1 X113.52 Y52.242 E68.92572
G1 X113.341 Y51.657 E68.95421
G1 X113.066 Y51.112 E68.98263
G1 X112.703 Y50.621 E69.01107
G1 X112.262 Y50.199 E69.03949
G1 X111.756 Y49.857 E69.06793
G1 X111.2 Y49.605 E69.09635
G1 X110.609 Y49.451 E69.12479
G1 X110 Y49.399 E69.15325
G1 X109.391 Y49.451 E69.18171
G1 X108.8 Y49.605 E69.21015
G1 X108.244 Y49.857 E69.23857
G1 X107.738 Y50.199 E69.26701
G1 X107.297 Y50.621 E69.29543
G1 X106.934 Y51.112 E69.32387
G1 X106.659 Y51.657 E69.35229
G1 X106.48 Y52.242 E69.38078
G1 X106.402 Y52.848 E69.40923
G1 X106.429 Y53.457 E69.43762
G1 X106.557 Y54.055 E69.46609
G1 X106.785 Y54.621 E69.4945
G1 X107.105 Y55.141 E69.52294
G1 X107.508 Y55.6 E69.55138
G1 X107.984 Y55.983 E69.57983
G1 X108.517 Y56.281 E69.60826
G1 X109.092 Y56.484 E69.63665
G1 X109.695 Y56.588 E69.66515
G0 F6000 X109.658 Y57.026
G1 F1500 E63.16515
G0 F6000 X109.661 Y57.178
G0 X109.769 Y55.724
G0 X110 Y164.268
G0 X110 Y162.807
G0 X108.127 Y163.648
G0 X107.587 Y164.012
G0 X107.116 Y164.462
G0 X106.729 Y164.987
G0 X106.436 Y165.568
G0 X106.245 Y166.192
G0 X106.162 Y166.839
G0 X106.191 Y167.488
G0 X106.327 Y168.125
G0 X106.571 Y168.729
G0 X106.912 Y169.283
G0 X107.342 Y169.773
G0 X107.85 Y170.182
G0 X108.171 Y170.361
G0 X109.661 Y170.988
;TYPE:WALL-INNER
G1 F1500 E69.66515
G1 F1200 X110.339 Y170.988 E69.69672
G1 X111.009 Y170.872 E69.72838
G1 X111.648 Y170.647 E69.75992
G1 X112.241 Y170.316 E69.79155
G1 X112.77 Y169.89 E69.82317
G1 X113.218 Y169.379 E69.85482
G1 X113.573 Y168.802 E69.88636
G1 X113.827 Y168.172 E69.91799
G1 X113.969 Y167.508 E69.94961
G1 X113.999 Y166.831 E69.98117
G1 X113.912 Y166.157 E70.01281
G1 X113.714 Y165.507 E70.04445
G1 X113.408 Y164.902 E70.07602
G1 X113.004 Y164.356 E70.10765
G1 X112.514 Y163.887 E70.13923
G1 X111.952 Y163.507 E70.17082
G1 X111.334 Y163.227 E70.20241
G1 X110.677 Y163.055 E70.23404
G1 X110 Y162.998 E70.26567
G1 X109.323 Y163.055 E70.29731
G1 X108.666 Y163.227 E70.32893
G1 X108.048 Y163.507 E70.36052
G1 X107.486 Y163.887 E70.39211
G1 X106.996 Y164.356 E70.4237
G1 X106.592 Y164.902 E70.45532
G1 X106.286 Y165.507 E70.48689
G1 X106.088 Y166.157 E70.51853
G1 X106.001 Y166.831 E70.55018
G1 X106.031 Y167.508 E70.58173
G1 X106.173 Y168.172 E70.61335
G1 X106.427 Y168.802 E70.64498
G1 X106.782 Y169.379 E70.67653
G1 X107.23 Y169.89 E70.70817
G1 X107.759 Y170.316 E70.7398
G1 X108.352 Y170.647 E70.77142
G1 X108.991 Y170.872 E70.80297
G1 X109.661 Y170.988 E70.83463
G0 F6000 X109.695 Y170.588
;TYPE:WALL-OUTER
G1 F1200 X110.305 Y170.588 E70.86303
G1 X110.908 Y170.484 E70.89152
G1 X111.483 Y170.281 E70.91992
G1 X112.016 Y169.983 E70.94835
G1 X112.492 Y169.6 E70.9768
G1 X112.895 Y169.141 E71.00524
G1 X113.215 Y168.621 E71.03367
G1 X113.443 Y168.055 E71.06209
G1 X113.571 Y167.457 E71.09056
G1 X113.598 Y166.848 E71.11895
G1 X113.52 Y166.242 E71.1474
G1 X113.341 Y165.657 E71.17589
G1 X113.066 Y165.112 E71.20431
G1 X112.703 Y164.621 E71.23274
G1 X112.262 Y164.199 E71.26117
G1 X111.756 Y163.857 E71.2896
G1 X111.2 Y163.605 E71.31803
G1 X110.609 Y163.451 E71.34647
G1 X110 Y163.399 E71.37493
G1 X109.391 Y163.451 E71.40339
G1 X108.8 Y163.605 E71.43183
G1 X108.244 Y163.857 E71.46025
G1 X107.738 Y164.199 E71.48869
G1 X107.297 Y164.621 E71.51711
G1 X106.934 Y165.112 E71.54555
G1 X106.659 Y165.657 E71.57397
G1 X106.48 Y166.242 E71.60246
G1 X106.402 Y166.848 E71.63091
G1 X106.429 Y167.457 E71.65929
G1 X106.557 Y168.055 E71.68777
G1 X106.785 Y168.621 E71.71618
G1 X107.105 Y169.141 E71.74461
G1 X107.508 Y169.6 E71.77306
G1 X107.984 Y169.983 E71.8015
G1 X108.517 Y170.281 E71.82994
G1 X109.092 Y170.484 E71.85833
G1 X109.695 Y170.588 E71.88683
G0 F6000 X109.658 Y171.026
G1 F1500 E65.38683
G0 F6000 X111.727 Y170.821
G0 X111.124 Y169.491
G0 X111.727 Y177.665
G0 X111.727 Y176.19
G0 X144.752 Y176.4
;TYPE:WALL-INNER
G1 F1500 E71.88683
G1 F1200 X75.248 Y176.4 E75.12322
G1 X70.6 Y171.752 E75.4293
G1 X70.6 Y48.248 E81.18017
G1 X75.248 Y43.6 E81.48624
G1 X144.752 Y43.6 E84.72264
